lib/flags/mn-mongolia.svg

<svg xmlns="http://www.w3.org/2000/svg" fill="none" aria-hidden="true" viewBox="0 0 42 30"><g id="Country=MN - Mongolia, Size=sm (36x24)" filter="url(#filter0_dd_91_26471)"><g clip-path="url(#clip0_91_26471)"><g id="flag"><mask id="mask0_91_26471" width="36" height="24" x="3" y="2" maskUnits="userSpaceOnUse" style="mask-type:alpha"><rect id="mask" width="36" height="24" x="3" y="2" fill="white"/></mask><g mask="url(#mask0_91_26471)"><g id="contents"><path id="middle" fill="#4C67E8" fill-rule="evenodd" d="M14.25 2H27.75V26H14.25V2Z" clip-rule="evenodd"/><path id="right" fill="#C51918" fill-rule="evenodd" d="M27.75 2H39V26H27.75V2Z" clip-rule="evenodd"/><path id="left" fill="#C51918" fill-rule="evenodd" d="M3 2H16.5V26H3V2Z" clip-rule="evenodd"/><path id="Combined Shape" fill="#F8D000" fill-rule="evenodd" d="M9.76567 8.88442C8.62566 8.88442 8.7753 7.89708 8.7753 7.89708L9.31581 6.85948V7.27744V7.89708C9.31581 8.03054 9.52068 7.76362 9.52068 7.44231C9.52068 7.121 9.76567 6.63986 9.76567 6.63986C9.76567 6.63986 9.77551 6.47897 9.78228 6.32011C9.8215 6.40185 9.9001 6.47262 10.0194 6.58006C10.0402 6.59879 10.0623 6.61864 10.0856 6.63986C10.2264 6.76815 10.2074 7.108 10.191 7.40205C10.1761 7.66835 10.1633 7.89708 10.2733 7.89708C10.5046 7.89708 10.4874 6.97831 10.4874 6.97831L10.8757 7.89708C10.8757 7.89708 10.9057 8.88442 9.76567 8.88442ZM9.76567 6.06474C9.79468 5.91398 9.79102 6.11537 9.78228 6.32011C9.74954 6.25187 9.74426 6.17599 9.76567 6.06474ZM11.4808 10.684C11.4808 11.4867 10.7252 12.1374 9.79326 12.1374C8.86128 12.1374 8.10576 11.4867 8.10576 10.684C8.10576 9.88129 8.86128 9.23058 9.79326 9.23058C10.7252 9.23058 11.4808 9.88129 11.4808 10.684ZM7.24038 13.4045H5.25V21.9758H7.24038V13.4045ZM14.2499 13.4045H12.2596V21.9758H14.2499V13.4045ZM7.75955 13.479L9.69987 14.5468L11.8867 13.479H7.75955ZM9.69987 22.0002L7.75955 20.9323H11.8867L9.69987 22.0002ZM7.75955 14.8951H11.8269V15.5659H7.75955V14.8951ZM11.8269 19.8889H7.75955V20.5597H11.8269V19.8889ZM9.83648 19.5162C10.9835 19.5162 11.9134 18.7153 11.9134 17.7274C11.9134 16.7395 10.9835 15.9386 9.83648 15.9386C8.68942 15.9386 7.75955 16.7395 7.75955 17.7274C7.75955 18.7153 8.68942 19.5162 9.83648 19.5162ZM7.50357 11.2164C7.50357 11.2164 7.57349 13.0837 9.64407 13.0837C11.7146 13.0837 12.0488 11.2164 12.0488 11.2164C12.0488 11.2164 11.2474 12.3603 9.7762 12.3603C8.30502 12.3603 7.50357 11.2164 7.50357 11.2164Z" clip-rule="evenodd"/><path id="Path 418" fill="#C51918" d="M10.1534 15.9725L10.2462 15.605C10.7102 16.0562 10.9204 16.3095 10.8211 16.7229C10.7102 17.1845 10.1274 17.6985 9.45019 18.1221C9.04005 18.3786 8.78879 19.071 8.99233 19.2911L8.79824 19.605C8.34463 19.1143 8.70718 18.1886 9.33314 17.7971C9.90794 17.4376 10.3094 17.0606 10.3794 16.7638C10.425 16.5706 10.51 16.3193 10.1534 15.9725Z"/><path id="Oval" fill="#C51918" fill-rule="evenodd" d="M10.3125 19C10.6232 19 10.875 18.7761 10.875 18.5C10.875 18.2239 10.6232 18 10.3125 18C10.0018 18 9.75 18.2239 9.75 18.5C9.75 18.7761 10.0018 19 10.3125 19Z" clip-rule="evenodd"/><path id="Oval_2" fill="#C51918" fill-rule="evenodd" d="M9.04785 17.6504C9.35851 17.6504 9.61035 17.4265 9.61035 17.1504C9.61035 16.8742 9.35851 16.6504 9.04785 16.6504C8.73719 16.6504 8.48535 16.8742 8.48535 17.1504C8.48535 17.4265 8.73719 17.6504 9.04785 17.6504Z" clip-rule="evenodd"/></g></g></g></g></g><defs><filter id="filter0_dd_91_26471" width="42" height="30" x="0" y="0" color-interpolation-filters="sRGB" filterUnits="userSpaceOnUse"><feFlood flood-opacity="0" result="BackgroundImageFix"/><feColorMatrix in="SourceAlpha" result="hardAlpha" values="0 0 0 0 0 0 0 0 0 0 0 0 0 0 0 0 0 0 127 0"/><feOffset dy="1"/><feGaussianBlur stdDeviation="1"/><feColorMatrix values="0 0 0 0 0.0627451 0 0 0 0 0.0941176 0 0 0 0 0.156863 0 0 0 0.06 0"/><feBlend in2="BackgroundImageFix" result="effect1_dropShadow_91_26471"/><feColorMatrix in="SourceAlpha" result="hardAlpha" values="0 0 0 0 0 0 0 0 0 0 0 0 0 0 0 0 0 0 127 0"/><feOffset dy="1"/><feGaussianBlur stdDeviation="1.5"/><feColorMatrix values="0 0 0 0 0.0627451 0 0 0 0 0.0941176 0 0 0 0 0.156863 0 0 0 0.1 0"/><feBlend in2="effect1_dropShadow_91_26471" result="effect2_dropShadow_91_26471"/><feBlend in="SourceGraphic" in2="effect2_dropShadow_91_26471" result="shape"/></filter><clipPath id="clip0_91_26471"><rect width="36" height="24" x="3" y="2" fill="white" rx="2"/></clipPath></defs></svg>

<svg xmlns="http://www.w3.org/2000/svg" fill="none" aria-hidden="true" viewBox="0 0 42 30"><g filter="url(#a)"><g clip-path="url(#b)"><mask id="c" width="36" height="24" x="3" y="2" maskUnits="userSpaceOnUse" style="mask-type:alpha"><path fill="#fff" d="M3 2h36v24H3z"/></mask><g mask="url(#c)"><path fill="#4C67E8" fill-rule="evenodd" d="M14.25 2h13.5v24h-13.5V2Z" clip-rule="evenodd"/><path fill="#C51918" fill-rule="evenodd" d="M27.75 2H39v24H27.75V2ZM3 2h13.5v24H3V2Z" clip-rule="evenodd"/><path fill="#F8D000" fill-rule="evenodd" d="M9.766 8.884c-1.14 0-.99-.987-.99-.987l.54-1.038v1.038c0 .134.205-.133.205-.455 0-.321.245-.802.245-.802s.01-.161.016-.32c.04.082.118.153.237.26l.067.06c.14.128.121.468.105.762-.015.266-.028.495.082.495.232 0 .214-.919.214-.919l.389.92s.03.986-1.11.986Zm0-2.82c.029-.15.025.051.016.256-.032-.068-.038-.144-.016-.255Zm1.715 4.62c0 .803-.756 1.453-1.688 1.453-.932 0-1.687-.65-1.687-1.453s.755-1.453 1.687-1.453 1.688.65 1.688 1.453Zm-4.24 2.72H5.25v8.572h1.99v-8.571Zm7.009 0h-1.99v8.572h1.99v-8.571Zm-6.49.075 1.94 1.068 2.187-1.068H7.76ZM9.7 22l-1.94-1.068h4.127L9.7 22Zm-1.94-7.105h4.067v.67H7.76v-.67Zm4.067 4.994H7.76v.67h4.067v-.67Zm-1.99-.373c1.146 0 2.076-.8 2.076-1.789 0-.988-.93-1.788-2.077-1.788-1.147 0-2.076.8-2.076 1.788s.93 1.79 2.076 1.79Zm-2.333-8.3s.07 1.868 2.14 1.868c2.07 0 2.405-1.868 2.405-1.868s-.802 1.144-2.273 1.144-2.272-1.144-2.272-1.144Z" clip-rule="evenodd"/><path fill="#C51918" d="m10.153 15.973.093-.368c.464.451.674.704.575 1.118-.11.462-.694.976-1.37 1.4-.41.256-.662.948-.459 1.168l-.194.314c-.453-.49-.09-1.416.535-1.808.575-.36.976-.736 1.046-1.033.046-.193.131-.445-.226-.791Z"/><path fill="#C51918" fill-rule="evenodd" d="M10.313 19c.31 0 .562-.224.562-.5s-.252-.5-.563-.5c-.31 0-.562.224-.562.5s.252.5.563.5Zm-1.265-1.35c.31 0 .562-.223.562-.5 0-.276-.251-.5-.562-.5-.31 0-.563.224-.563.5 0 .277.252.5.563.5Z" clip-rule="evenodd"/></g></g></g><defs><clipPath id="b"><rect width="36" height="24" x="3" y="2" fill="#fff" rx="2"/></clipPath><filter id="a" width="42" height="30" x="0" y="0" color-interpolation-filters="sRGB" filterUnits="userSpaceOnUse"><feFlood flood-opacity="0" result="BackgroundImageFix"/><feColorMatrix in="SourceAlpha" result="hardAlpha" values="0 0 0 0 0 0 0 0 0 0 0 0 0 0 0 0 0 0 127 0"/><feOffset dy="1"/><feGaussianBlur stdDeviation="1"/><feColorMatrix values="0 0 0 0 0.0627451 0 0 0 0 0.0941176 0 0 0 0 0.156863 0 0 0 0.06 0"/><feBlend in2="BackgroundImageFix" result="effect1_dropShadow_91_26471"/><feColorMatrix in="SourceAlpha" result="hardAlpha" values="0 0 0 0 0 0 0 0 0 0 0 0 0 0 0 0 0 0 127 0"/><feOffset dy="1"/><feGaussianBlur stdDeviation="1.5"/><feColorMatrix values="0 0 0 0 0.0627451 0 0 0 0 0.0941176 0 0 0 0 0.156863 0 0 0 0.1 0"/><feBlend in2="effect1_dropShadow_91_26471" result="effect2_dropShadow_91_26471"/><feBlend in="SourceGraphic" in2="effect2_dropShadow_91_26471" result="shape"/></filter></defs></svg>
